X: 070543
T: Galtee Hunt
S: Treoir (Patrick Kelly setting)
N: also known as "Mount Phoebus' Hunt"
Z: B.Black
M: 4/4
L: 1/8
R: hornpipe
K: G
D2 | GABG AGED | (3ccc cA BGED | GABG AGED |\
EAAB A2 BA |
GABG AGED | cBcd e2 ge | dBGB AG (3EDE |\
G2 (3GGG G2 :|
BA | G3 B d2 d2 | egfd e2 d2 | e2 d2 gddg |\
edBc d3 B |
(3ccc cB cdgd | (3BBB BA BddB | Ac BA/G/ AGED |\
gfgb (3agf ge |
dBGB AGED | (3ccc cd e2 ge | dBGB AG (3EDE |\
G2 (3GGG G2 ||
